X:1
T:Atkinson, 77.75
T:Atkinson, 77.75
T:Walter Olivant Wilkinson, 1895
T:Public Domain Courtesy of the Cyber Hymnal™
C:Walter Olivant Wilkinson, 1895
Z:Public Domain
Z:Courtesy of the Cyber Hymnal™
%%score ( 1 2 ) ( 3 4 )
L:1/8
M:3/4
K:F
V:1 treble 
V:2 treble 
V:3 bass 
V:4 bass 
V:1
 (A2 F2) [FG]2 | (A2 c2) [FB]2 | [FA]4 [EG]2 | F6 | (d2 e2) [Ff]2 | (f2 c2) [FA]2 | [FG]4 [FA]2 | %7
 [EG]6 | (G2 A2) [EG]2 | [Fc]4 [Fc]2 | [F_d]4 [Fd]2 | f6 | ([Fc]2 [EA]2) [FB]2 | A4 [EG]2 | F6 |] %15
V:2
 F4 x2 | F4 x2 | x6 | F6 | F4 x2 | F4 x2 | x6 | x6 | E4 x2 | x6 | x6 | (F2 G2 F2) | x6 | %13
 (F2 D2) x2 | F6 |] %15
V:3
 (C2 A,2) [D,=B,]2 | C4 [B,,D]2 | (F2 C2) [^C,B,]2 | [D,A,]6 | [B,,B,]4 [B,D]2 | [A,C]4 [F,C]2 | %6
 [D,=B,]4 [G,,B,]2 | [C,C]6 | [B,C]4 [B,C]2 | [A,C]4 [A,,C]2 | [B,,B,]4 [G,B,]2 | [^G,=B,]6 | %12
 (C2 ^C2) [G,D]2 | (C2 =B,2) [C,_B,]2 | [F,,F,A,]6 |] %15
V:4
 F,4 x2 | (C,2 A,,2) x2 | ^C,4 x2 | x6 | x6 | x6 | x6 | x6 | x6 | x6 | x6 | x6 | A,4 x2 | C,4 x2 | %14
 x6 |] %15

